X:51
T: JAKOB HAT KEIN BROT IM HAUS
N: K0600
O: Europa, Mitteleuropa, Deutschland, Thueringen
R: Kinder -, Spiel - Lied
M: 2/4
L: 1/8
K: G
 | DGGG | FAG2 |
DFAc | BdG2 |
BBc2 | AAB2 |
GGAA | FFG2

@@@ Tune index: 7388
